; Generated by Adaptive Dynamics Toolkit TSP Slicer
; Layer height: 0.2mm
; Wall thickness: 1.2mm
; Infill density: 15%

M104 S210 ; set extruder temp
M140 S60 ; set bed temp
G28 ; home all axes
G1 Z5 F5000 ; lift nozzle

; Layer 0, Z = 0.000
G1 Z0.000 F600
G0 X70.000 Y50.000 F3000
G1 X66.825 Y39.187 E0.37189 F1800
G1 X57.138 Y31.317 E0.78377 F1800
G1 X44.671 Y30.723 E1.19566 F1800
G1 X34.279 Y37.637 E1.60754 F1800
G1 X30.010 Y49.365 E2.01942 F1800
G1 X33.526 Y61.341 E2.43131 F1800
G1 X43.459 Y68.900 E2.84319 F1800
G1 X55.938 Y69.098 E3.25508 F1800
G1 X66.105 Y61.858 E3.66696 F1800
G1 X64.000 Y50.000 E4.06440 F1800
G1 X61.274 Y58.301 E4.35272 F1800
G1 X54.157 Y63.369 E4.64104 F1800
G1 X45.421 Y63.230 E4.92936 F1800
G1 X38.469 Y57.939 E5.21768 F1800
G1 X36.007 Y49.556 E5.50599 F1800
G1 X38.995 Y41.346 E5.79431 F1800
G1 X46.269 Y36.506 E6.08263 F1800
G1 X54.996 Y36.922 E6.37095 F1800
G1 X61.778 Y42.431 E6.65927 F1800
G1 E-0.5 F1800

; Layer 1, Z = 0.200
G1 Z0.200 F600
G0 X70.400 Y50.000 F3000
G1 X67.161 Y38.971 E0.37932 F1800
G1 X57.280 Y30.943 E0.79944 F1800
G1 X44.564 Y30.338 E1.21956 F1800
G1 X33.965 Y37.390 E1.63968 F1800
G1 X29.610 Y49.353 E2.05980 F1800
G1 X33.197 Y61.568 E2.47992 F1800
G1 X43.328 Y69.278 E2.90004 F1800
G1 X56.057 Y69.480 E3.32016 F1800
G1 X66.427 Y62.095 E3.74028 F1800
G1 X64.280 Y50.000 E4.14567 F1800
G1 X61.499 Y58.467 E4.43975 F1800
G1 X54.240 Y63.636 E4.73383 F1800
G1 X45.329 Y63.495 E5.02792 F1800
G1 X38.238 Y58.098 E5.32200 F1800
G1 X35.727 Y49.547 E5.61608 F1800
G1 X38.775 Y41.173 E5.91017 F1800
G1 X46.195 Y36.236 E6.20425 F1800
G1 X55.096 Y36.660 E6.49834 F1800
G1 X62.013 Y42.280 E6.79242 F1800
G1 E-0.5 F1800

; Layer 2, Z = 0.400
G1 Z0.400 F600
G0 X70.799 Y50.000 F3000
G1 X67.497 Y38.755 E0.38675 F1800
G1 X57.423 Y30.571 E0.81509 F1800
G1 X44.458 Y29.953 E1.24343 F1800
G1 X33.651 Y37.143 E1.67177 F1800
G1 X29.211 Y49.340 E2.10011 F1800
G1 X32.868 Y61.794 E2.52846 F1800
G1 X43.197 Y69.655 E2.95680 F1800
G1 X56.176 Y69.861 E3.38514 F1800
G1 X66.749 Y62.332 E3.81348 F1800
G1 X64.559 Y50.000 E4.22680 F1800
G1 X61.724 Y58.632 E4.52664 F1800
G1 X54.323 Y63.903 E4.82648 F1800
G1 X45.238 Y63.759 E5.12632 F1800
G1 X38.008 Y58.256 E5.42616 F1800
G1 X35.448 Y49.538 E5.72600 F1800
G1 X38.556 Y41.000 E6.02584 F1800
G1 X46.120 Y35.967 E6.32568 F1800
G1 X55.196 Y36.399 E6.62552 F1800
G1 X62.248 Y42.129 E6.92536 F1800
G1 E-0.5 F1800

; Layer 3, Z = 0.600
G1 Z0.600 F600
G0 X71.197 Y50.000 F3000
G1 X67.832 Y38.540 E0.39415 F1800
G1 X57.565 Y30.199 E0.83068 F1800
G1 X44.352 Y29.569 E1.26722 F1800
G1 X33.338 Y36.897 E1.70376 F1800
G1 X28.814 Y49.327 E2.14030 F1800
G1 X32.540 Y62.020 E2.57684 F1800
G1 X43.067 Y70.031 E3.01337 F1800
G1 X56.294 Y70.241 E3.44991 F1800
G1 X67.069 Y62.568 E3.88645 F1800
G1 X64.838 Y50.000 E4.30768 F1800
G1 X61.949 Y58.798 E4.61326 F1800
G1 X54.406 Y64.169 E4.91883 F1800
G1 X45.147 Y64.022 E5.22441 F1800
G1 X37.778 Y58.414 E5.52998 F1800
G1 X35.169 Y49.529 E5.83556 F1800
G1 X38.337 Y40.828 E6.14114 F1800
G1 X46.046 Y35.699 E6.44671 F1800
G1 X55.295 Y36.139 E6.75229 F1800
G1 X62.483 Y41.978 E7.05787 F1800
G1 E-0.5 F1800

; Layer 4, Z = 0.800
G1 Z0.800 F600
G0 X71.593 Y50.000 F3000
G1 X68.165 Y38.326 E0.40151 F1800
G1 X57.706 Y29.829 E0.84621 F1800
G1 X44.246 Y29.188 E1.29090 F1800
G1 X33.027 Y36.652 E1.73559 F1800
G1 X28.418 Y49.315 E2.18029 F1800
G1 X32.214 Y62.245 E2.62498 F1800
G1 X42.938 Y70.406 E3.06968 F1800
G1 X56.411 Y70.619 E3.51437 F1800
G1 X67.388 Y62.803 E3.95907 F1800
G1 X65.115 Y50.000 E4.38817 F1800
G1 X62.172 Y58.962 E4.69945 F1800
G1 X54.488 Y64.434 E5.01074 F1800
G1 X45.056 Y64.284 E5.32202 F1800
G1 X37.550 Y58.571 E5.63331 F1800
G1 X34.892 Y49.520 E5.94460 F1800
G1 X38.119 Y40.656 E6.25588 F1800
G1 X45.972 Y35.431 E6.56717 F1800
G1 X55.394 Y35.880 E6.87845 F1800
G1 X62.716 Y41.828 E7.18974 F1800
G1 E-0.5 F1800

; Layer 5, Z = 1.000
G1 Z1.000 F600
G0 X71.987 Y50.000 F3000
G1 X68.496 Y38.113 E0.40883 F1800
G1 X57.847 Y29.461 E0.86163 F1800
G1 X44.141 Y28.808 E1.31443 F1800
G1 X32.717 Y36.409 E1.76722 F1800
G1 X28.024 Y49.302 E2.22002 F1800
G1 X31.890 Y62.468 E2.67282 F1800
G1 X42.809 Y70.777 E3.12562 F1800
G1 X56.528 Y70.995 E3.57842 F1800
G1 X67.705 Y63.036 E4.03122 F1800
G1 X65.391 Y50.000 E4.46814 F1800
G1 X62.394 Y59.125 E4.78509 F1800
G1 X54.570 Y64.697 E5.10205 F1800
G1 X44.966 Y64.544 E5.41901 F1800
G1 X37.323 Y58.727 E5.73597 F1800
G1 X34.617 Y49.512 E6.05293 F1800
G1 X37.902 Y40.486 E6.36989 F1800
G1 X45.899 Y35.166 E6.68685 F1800
G1 X55.493 Y35.623 E7.00381 F1800
G1 X62.947 Y41.679 E7.32077 F1800
G1 E-0.5 F1800

; Layer 6, Z = 1.200
G1 Z1.200 F600
G0 X72.377 Y50.000 F3000
G1 X68.825 Y37.902 E0.41609 F1800
G1 X57.986 Y29.097 E0.87692 F1800
G1 X44.037 Y28.432 E1.33776 F1800
G1 X32.410 Y36.167 E1.79860 F1800
G1 X27.634 Y49.290 E2.25943 F1800
G1 X31.569 Y62.689 E2.72027 F1800
G1 X42.681 Y71.146 E3.18111 F1800
G1 X56.644 Y71.368 E3.64195 F1800
G1 X68.020 Y63.268 E4.10278 F1800
G1 X65.664 Y50.000 E4.54746 F1800
G1 X62.614 Y59.287 E4.87004 F1800
G1 X54.651 Y64.958 E5.19263 F1800
G1 X44.877 Y64.802 E5.51522 F1800
G1 X37.098 Y58.882 E5.83780 F1800
G1 X34.344 Y49.503 E6.16039 F1800
G1 X37.687 Y40.317 E6.48297 F1800
G1 X45.826 Y34.902 E6.80556 F1800
G1 X55.590 Y35.368 E7.12815 F1800
G1 X63.177 Y41.531 E7.45073 F1800
G1 E-0.5 F1800

; Layer 7, Z = 1.400
G1 Z1.400 F600
G0 X72.764 Y50.000 F3000
G1 X69.150 Y37.693 E0.42327 F1800
G1 X58.124 Y28.735 E0.89207 F1800
G1 X43.934 Y28.060 E1.36087 F1800
G1 X32.107 Y35.929 E1.82967 F1800
G1 X27.248 Y49.278 E2.29846 F1800
G1 X31.250 Y62.908 E2.76726 F1800
G1 X42.555 Y71.512 E3.23606 F1800
G1 X56.759 Y71.737 E3.70486 F1800
G1 X68.331 Y63.497 E4.17365 F1800
G1 X65.934 Y50.000 E4.62601 F1800
G1 X62.832 Y59.448 E4.95417 F1800
G1 X54.731 Y65.216 E5.28233 F1800
G1 X44.788 Y65.058 E5.61048 F1800
G1 X36.875 Y59.036 E5.93864 F1800
G1 X34.074 Y49.494 E6.26680 F1800
G1 X37.475 Y40.150 E6.59496 F1800
G1 X45.754 Y34.642 E6.92312 F1800
G1 X55.687 Y35.115 E7.25127 F1800
G1 X63.405 Y41.385 E7.57943 F1800
G1 E-0.5 F1800

; Layer 8, Z = 1.600
G1 Z1.600 F600
G0 X73.146 Y50.000 F3000
G1 X69.471 Y37.487 E0.43038 F1800
G1 X58.260 Y28.379 E0.90705 F1800
G1 X43.832 Y27.691 E1.38371 F1800
G1 X31.806 Y35.692 E1.86038 F1800
G1 X26.866 Y49.266 E2.33705 F1800
G1 X30.935 Y63.125 E2.81371 F1800
G1 X42.430 Y71.873 E3.29038 F1800
G1 X56.872 Y72.102 E3.76705 F1800
G1 X68.639 Y63.723 E4.24371 F1800
G1 X66.202 Y50.000 E4.70366 F1800
G1 X63.047 Y59.606 E5.03733 F1800
G1 X54.811 Y65.471 E5.37099 F1800
G1 X44.701 Y65.311 E5.70466 F1800
G1 X36.655 Y59.187 E6.03833 F1800
G1 X33.806 Y49.486 E6.37199 F1800
G1 X37.264 Y39.985 E6.70566 F1800
G1 X45.683 Y34.384 E7.03933 F1800
G1 X55.782 Y34.865 E7.37299 F1800
G1 X63.630 Y41.241 E7.70666 F1800
G1 E-0.5 F1800

; Layer 9, Z = 1.800
G1 Z1.800 F600
G0 X73.523 Y50.000 F3000
G1 X69.789 Y37.283 E0.43739 F1800
G1 X58.395 Y28.026 E0.92182 F1800
G1 X43.732 Y27.328 E1.40625 F1800
G1 X31.510 Y35.459 E1.89069 F1800
G1 X26.489 Y49.254 E2.37512 F1800
G1 X30.625 Y63.339 E2.85955 F1800
G1 X42.306 Y72.229 E3.34398 F1800
G1 X56.984 Y72.462 E3.82842 F1800
G1 X68.942 Y63.947 E4.31285 F1800
G1 X66.466 Y50.000 E4.78029 F1800
G1 X63.260 Y59.763 E5.11939 F1800
G1 X54.889 Y65.723 E5.45850 F1800
G1 X44.615 Y65.560 E5.79760 F1800
G1 X36.437 Y59.337 E6.13670 F1800
G1 X33.542 Y49.478 E6.47580 F1800
G1 X37.057 Y39.821 E6.81491 F1800
G1 X45.612 Y34.129 E7.15401 F1800
G1 X55.876 Y34.618 E7.49311 F1800
G1 X63.852 Y41.098 E7.83221 F1800
G1 E-0.5 F1800

; Layer 10, Z = 2.000
G1 Z2.000 F600
G0 X73.894 Y50.000 F3000
G1 X70.101 Y37.082 E0.44430 F1800
G1 X58.528 Y27.679 E0.93638 F1800
G1 X43.633 Y26.970 E1.42846 F1800
G1 X31.218 Y35.230 E1.92054 F1800
G1 X26.118 Y49.242 E2.41262 F1800
G1 X30.319 Y63.549 E2.90471 F1800
G1 X42.185 Y72.580 E3.39679 F1800
G1 X57.095 Y72.817 E3.88887 F1800
G1 X69.241 Y64.167 E4.38095 F1800
G1 X66.726 Y50.000 E4.85578 F1800
G1 X63.469 Y59.917 E5.20023 F1800
G1 X54.966 Y65.972 E5.54469 F1800
G1 X44.529 Y65.806 E5.88915 F1800
G1 X36.223 Y59.485 E6.23360 F1800
G1 X33.282 Y49.469 E6.57806 F1800
G1 X36.853 Y39.661 E6.92252 F1800
G1 X45.543 Y33.879 E7.26698 F1800
G1 X55.969 Y34.376 E7.61143 F1800
G1 X64.071 Y40.957 E7.95589 F1800
G1 E-0.5 F1800

; Layer 11, Z = 2.200
G1 Z2.200 F600
G0 X74.259 Y50.000 F3000
G1 X70.408 Y36.884 E0.45109 F1800
G1 X58.658 Y27.338 E0.95069 F1800
G1 X43.536 Y26.618 E1.45029 F1800
G1 X30.931 Y35.004 E1.94990 F1800
G1 X25.753 Y49.230 E2.44950 F1800
G1 X30.018 Y63.757 E2.94910 F1800
G1 X42.066 Y72.925 E3.44871 F1800
G1 X57.203 Y73.165 E3.94831 F1800
G1 X69.535 Y64.384 E4.44791 F1800
G1 X66.982 Y50.000 E4.92999 F1800
G1 X63.675 Y60.069 E5.27972 F1800
G1 X55.042 Y66.216 E5.62944 F1800
G1 X44.446 Y66.048 E5.97916 F1800
G1 X36.013 Y59.630 E6.32888 F1800
G1 X33.027 Y49.461 E6.67860 F1800
G1 X36.652 Y39.503 E7.02833 F1800
G1 X45.475 Y33.632 E7.37805 F1800
G1 X56.060 Y34.137 E7.72777 F1800
G1 X64.286 Y40.819 E8.07749 F1800
G1 E-0.5 F1800

; Layer 12, Z = 2.400
G1 Z2.400 F600
G0 X74.618 Y50.000 F3000
G1 X70.710 Y36.691 E0.45775 F1800
G1 X58.786 Y27.003 E0.96474 F1800
G1 X43.440 Y26.272 E1.47172 F1800
G1 X30.649 Y34.782 E1.97870 F1800
G1 X25.395 Y49.219 E2.48569 F1800
G1 X29.723 Y63.960 E2.99267 F1800
G1 X41.948 Y73.264 E3.49966 F1800
G1 X57.310 Y73.508 E4.00664 F1800
G1 X69.824 Y64.596 E4.51362 F1800
G1 X67.232 Y50.000 E5.00283 F1800
G1 X63.877 Y60.217 E5.35772 F1800
G1 X55.117 Y66.455 E5.71260 F1800
G1 X44.364 Y66.285 E6.06749 F1800
G1 X35.806 Y59.772 E6.42238 F1800
G1 X32.776 Y49.453 E6.77727 F1800
G1 X36.454 Y39.348 E7.13216 F1800
G1 X45.408 Y33.391 E7.48705 F1800
G1 X56.150 Y33.902 E7.84194 F1800
G1 X64.497 Y40.683 E8.19683 F1800
G1 E-0.5 F1800

; Layer 13, Z = 2.600
G1 Z2.600 F600
G0 X74.969 Y50.000 F3000
G1 X71.005 Y36.501 E0.46428 F1800
G1 X58.911 Y26.675 E0.97849 F1800
G1 X43.346 Y25.934 E1.49270 F1800
G1 X30.373 Y34.565 E2.00692 F1800
G1 X25.044 Y49.208 E2.52113 F1800
G1 X29.434 Y64.159 E3.03534 F1800
G1 X41.834 Y73.596 E3.54955 F1800
G1 X57.414 Y73.843 E4.06377 F1800
G1 X70.107 Y64.804 E4.57798 F1800
G1 X67.478 Y50.000 E5.07416 F1800
G1 X64.075 Y60.363 E5.43411 F1800
G1 X55.190 Y66.690 E5.79406 F1800
G1 X44.283 Y66.517 E6.15401 F1800
G1 X35.604 Y59.911 E6.51395 F1800
G1 X32.531 Y49.445 E6.87390 F1800
G1 X36.261 Y39.196 E7.23385 F1800
G1 X45.343 Y33.154 E7.59380 F1800
G1 X56.238 Y33.673 E7.95375 F1800
G1 X64.704 Y40.551 E8.31370 F1800
G1 E-0.5 F1800

; Layer 14, Z = 2.800
G1 Z2.800 F600
G0 X75.312 Y50.000 F3000
G1 X71.294 Y36.315 E0.47066 F1800
G1 X59.033 Y26.355 E0.99194 F1800
G1 X43.255 Y25.603 E1.51321 F1800
G1 X30.104 Y34.353 E2.03449 F1800
G1 X24.701 Y49.197 E2.55577 F1800
G1 X29.151 Y64.353 E3.07705 F1800
G1 X41.721 Y73.920 E3.59832 F1800
G1 X57.516 Y74.170 E4.11960 F1800
G1 X70.383 Y65.008 E4.64088 F1800
G1 X67.718 Y50.000 E5.14388 F1800
G1 X64.268 Y60.505 E5.50877 F1800
G1 X55.261 Y66.919 E5.87366 F1800
G1 X44.205 Y66.744 E6.23856 F1800
G1 X35.406 Y60.047 E6.60345 F1800
G1 X32.291 Y49.438 E6.96835 F1800
G1 X36.072 Y39.047 E7.33324 F1800
G1 X45.279 Y32.922 E7.69814 F1800
G1 X56.323 Y33.448 E8.06303 F1800
G1 X64.906 Y40.421 E8.42793 F1800
G1 E-0.5 F1800

; Layer 15, Z = 3.000
G1 Z3.000 F600
G0 X75.646 Y50.000 F3000
G1 X71.575 Y36.134 E0.47688 F1800
G1 X59.153 Y26.042 E1.00505 F1800
G1 X43.166 Y25.281 E1.53321 F1800
G1 X29.841 Y34.146 E2.06138 F1800
G1 X24.366 Y49.186 E2.58955 F1800
G1 X28.876 Y64.543 E3.11772 F1800
G1 X41.612 Y74.236 E3.64589 F1800
G1 X57.615 Y74.490 E4.17405 F1800
G1 X70.652 Y65.206 E4.70222 F1800
G1 X67.952 Y50.000 E5.21187 F1800
G1 X64.457 Y60.644 E5.58158 F1800
G1 X55.330 Y67.143 E5.95130 F1800
G1 X44.128 Y66.965 E6.32102 F1800
G1 X35.213 Y60.180 E6.69074 F1800
G1 X32.057 Y49.430 E7.06045 F1800
G1 X35.888 Y38.903 E7.43017 F1800
G1 X45.216 Y32.697 E7.79989 F1800
G1 X56.407 Y33.230 E8.16961 F1800
G1 X65.103 Y40.294 E8.53932 F1800
G1 E-0.5 F1800

; Layer 16, Z = 3.200
G1 Z3.200 F600
G0 X75.972 Y50.000 F3000
G1 X71.849 Y35.959 E0.48293 F1800
G1 X59.269 Y25.738 E1.01780 F1800
G1 X43.079 Y24.967 E1.55268 F1800
G1 X29.585 Y33.945 E2.08755 F1800
G1 X24.041 Y49.176 E2.62242 F1800
G1 X28.608 Y64.728 E3.15729 F1800
G1 X41.505 Y74.544 E3.69216 F1800
G1 X57.712 Y74.801 E4.22703 F1800
G1 X70.914 Y65.399 E4.76191 F1800
G1 X68.180 Y50.000 E5.27802 F1800
G1 X64.640 Y60.779 E5.65243 F1800
G1 X55.398 Y67.360 E6.02684 F1800
G1 X44.054 Y67.180 E6.40125 F1800
G1 X35.025 Y60.309 E6.77566 F1800
G1 X31.829 Y49.423 E7.15007 F1800
G1 X35.709 Y38.762 E7.52448 F1800
G1 X45.155 Y32.477 E7.89889 F1800
G1 X56.488 Y33.017 E8.27330 F1800
G1 X65.294 Y40.171 E8.64771 F1800
G1 E-0.5 F1800

; Layer 17, Z = 3.400
G1 Z3.400 F600
G0 X76.288 Y50.000 F3000
G1 X72.115 Y35.788 E0.48881 F1800
G1 X59.382 Y25.443 E1.03019 F1800
G1 X42.995 Y24.663 E1.57157 F1800
G1 X29.336 Y33.750 E2.11294 F1800
G1 X23.725 Y49.166 E2.65432 F1800
G1 X28.347 Y64.907 E3.19570 F1800
G1 X41.402 Y74.842 E3.73708 F1800
G1 X57.805 Y75.102 E4.27846 F1800
G1 X71.169 Y65.586 E4.81984 F1800
G1 X68.402 Y50.000 E5.34223 F1800
G1 X64.818 Y60.910 E5.72120 F1800
G1 X55.464 Y67.572 E6.10016 F1800
G1 X43.981 Y67.389 E6.47913 F1800
G1 X34.843 Y60.435 E6.85809 F1800
G1 X31.608 Y49.416 E7.23706 F1800
G1 X35.535 Y38.625 E7.61602 F1800
G1 X45.096 Y32.264 E7.99499 F1800
G1 X56.567 Y32.810 E8.37396 F1800
G1 X65.480 Y40.051 E8.75292 F1800
G1 E-0.5 F1800

; Layer 18, Z = 3.600
G1 Z3.600 F600
G0 X76.594 Y50.000 F3000
G1 X72.372 Y35.622 E0.49450 F1800
G1 X59.491 Y25.157 E1.04217 F1800
G1 X42.913 Y24.368 E1.58985 F1800
G1 X29.096 Y33.561 E2.13753 F1800
G1 X23.420 Y49.156 E2.68521 F1800
G1 X28.095 Y65.080 E3.23289 F1800
G1 X41.302 Y75.131 E3.78057 F1800
G1 X57.896 Y75.395 E4.32825 F1800
G1 X71.415 Y65.768 E4.87593 F1800
G1 X68.616 Y50.000 E5.40440 F1800
G1 X64.991 Y61.037 E5.78778 F1800
G1 X55.527 Y67.776 E6.17115 F1800
G1 X43.911 Y67.592 E6.55453 F1800
G1 X34.667 Y60.556 E6.93790 F1800
G1 X31.394 Y49.409 E7.32128 F1800
G1 X35.367 Y38.493 E7.70465 F1800
G1 X45.039 Y32.057 E8.08803 F1800
G1 X56.644 Y32.610 E8.47140 F1800
G1 X65.661 Y39.936 E8.85478 F1800
G1 E-0.5 F1800

; Layer 19, Z = 3.800
G1 Z3.800 F600
G0 X76.889 Y50.000 F3000
G1 X72.621 Y35.463 E0.49999 F1800
G1 X59.596 Y24.881 E1.05375 F1800
G1 X42.835 Y24.083 E1.60751 F1800
G1 X28.864 Y33.378 E2.16127 F1800
G1 X23.124 Y49.147 E2.71504 F1800
G1 X27.852 Y65.248 E3.26880 F1800
G1 X41.205 Y75.410 E3.82256 F1800
G1 X57.984 Y75.677 E4.37632 F1800
G1 X71.653 Y65.943 E4.93008 F1800
G1 X68.822 Y50.000 E5.46443 F1800
G1 X65.157 Y61.160 E5.85206 F1800
G1 X55.589 Y67.974 E6.23969 F1800
G1 X43.844 Y67.787 E6.62733 F1800
G1 X34.496 Y60.673 E7.01496 F1800
G1 X31.187 Y49.403 E7.40259 F1800
G1 X35.205 Y38.365 E7.79023 F1800
G1 X44.984 Y31.858 E8.17786 F1800
G1 X56.717 Y32.417 E8.56549 F1800
G1 X65.834 Y39.824 E8.95313 F1800
G1 E-0.5 F1800

; Layer 20, Z = 4.000
G1 Z4.000 F600
G0 X77.174 Y50.000 F3000
G1 X72.860 Y35.309 E0.50527 F1800
G1 X59.698 Y24.616 E1.06489 F1800
G1 X42.759 Y23.809 E1.62451 F1800
G1 X28.640 Y33.202 E2.18413 F1800
G1 X22.840 Y49.138 E2.74375 F1800
G1 X27.618 Y65.409 E3.30336 F1800
G1 X41.112 Y75.679 E3.86298 F1800
G1 X58.068 Y75.948 E4.42260 F1800
G1 X71.882 Y66.111 E4.98222 F1800
G1 X69.021 Y50.000 E5.52221 F1800
G1 X65.317 Y61.278 E5.91394 F1800
G1 X55.648 Y68.164 E6.30568 F1800
G1 X43.779 Y67.975 E6.69741 F1800
G1 X34.332 Y60.786 E7.08914 F1800
G1 X30.988 Y49.396 E7.48087 F1800
G1 X35.048 Y38.242 E7.87261 F1800
G1 X44.931 Y31.666 E8.26434 F1800
G1 X56.789 Y32.231 E8.65607 F1800
G1 X66.002 Y39.716 E9.04780 F1800
G1 E-0.5 F1800

; Layer 21, Z = 4.200
G1 Z4.200 F600
G0 X77.446 Y50.000 F3000
G1 X73.089 Y35.161 E0.51035 F1800
G1 X59.795 Y24.361 E1.07559 F1800
G1 X42.686 Y23.546 E1.64082 F1800
G1 X28.426 Y33.034 E2.20606 F1800
G1 X22.567 Y49.129 E2.77130 F1800
G1 X27.393 Y65.564 E3.33654 F1800
G1 X41.023 Y75.937 E3.90177 F1800
G1 X58.149 Y76.209 E4.46701 F1800
G1 X72.102 Y66.273 E5.03225 F1800
G1 X69.213 Y50.000 E5.57766 F1800
G1 X65.471 Y61.391 E5.97333 F1800
G1 X55.705 Y68.346 E6.36900 F1800
G1 X43.716 Y68.156 E6.76466 F1800
G1 X34.175 Y60.895 E7.16033 F1800
G1 X30.797 Y49.390 E7.55599 F1800
